X:18
T: Methodist Preacher
C: Bill Monroe
S: MandoZine TablEdit Archives
Z: TablEdited by Mike Stangeland for MandoZine
L: 1/8
Q: 450
M: 4/4
K: G
 z6 ga | "G"bb bb bb bb | ab ag eg z2 | b3a g2 ea | "D"ge dB "G"AG z2 | "G"bb bb bb bb |
 ab ag eg ag | bg ag ef ga | "D"ge dB "G"AG ef | "G"g2 ef g2 ef | g2 ef g2 (3DEF |
 G2 g2 g2 ga | "D"ge dB "G"AG z2 | "G"B2 BB d2 dB | de dB AG EG | DE GA Bd ef | "D"ge dB "G"AG z2 |
 "G"[gB]d zB d2 dB | de dB AG DB, | G,B, DG EG Bd | "D"ge dB "G"AG z2 | "G"DF GB AG B2 |
 DF GB AG EG | DF GA Bd ef | "D"ge dB "G"AG z2 | "G"DF GB AG B2 | DF GB AG EG | DF GA Bd ef |
 "D"ge dB "G"AG z2 |
